Yaru++/actions/16/align-vertical-bottom-out.svg

<svg viewBox="0 0 24 24" xmlns="http://www.w3.org/2000/svg">
  <path d="m4 4v1 6h6v-1-6h-1zm10 0v6h5 1v-1-4-1h-1-4zm-9 1h4v5h-4zm10 0h4v4h-4zm-11 8v1h16v-1zm10 3v1 3h6v-1-3h-1z" fill="#808080"/>
</svg>

<svg xmlns="http://www.w3.org/2000/svg" viewBox="0 0 24 24">
 <defs>
  <style id="current-color-scheme" type="text/css">
   .ColorScheme-Text { color:#808080; }
  </style>
 </defs>
 <path fill="#808080" class="ColorScheme-Text" d="M 4 4 L 4 5 L 4 11 L 10 11 L 10 10 L 10 4 L 9 4 L 4 4 z M 14 4 L 14 10 L 19 10 L 20 10 L 20 9 L 20 5 L 20 4 L 19 4 L 15 4 L 14 4 z M 5 5 L 9 5 L 9 10 L 5 10 L 5 5 z M 15 5 L 19 5 L 19 9 L 15 9 L 15 5 z M 4 13 L 4 14 L 20 14 L 20 13 L 4 13 z M 14 16 L 14 17 L 14 20 L 20 20 L 20 19 L 20 16 L 19 16 L 14 16 z"/>
</svg>
